X:8106
%17288
T:The Tinker's Reel
M:4/4
L:1/8
K:Cmaj
|E2 DF EC CD|DF GF EC CD|E2 DF EC CD|EG AB cE DF|
E2 DF EC CD|EF GF ED CD|E2 DF EC CD|EGAB c2 Bc ||
|:d4 de dc|Bc de f2 ef|d4 de dc|BG AB c2 Bc|
d4 de dc| Bc de f2 ef|g
